app/img/dest/logo.svg

<svg width="107" height="25" viewBox="0 0 107 25" fill="none" xmlns="http://www.w3.org/2000/svg">
<path d="M7.62729 0.320887H10.809L18.5961 19.472H14.4701L12.9155 15.7089H5.60787L4.11147 19.472H0L7.62729 0.320887ZM9.22539 6.59277L7.00258 12.2375H11.5208L9.22539 6.59277Z" fill="#00D053"/>
<path d="M24.8722 6.92824V8.78063H24.9303C25.2984 8.1583 25.7246 7.66725 26.2088 7.30747C26.7028 6.93796 27.158 6.75321 27.5745 6.75321C27.8263 6.75321 28.0539 6.77266 28.2573 6.81155V10.8956C27.9474 10.8372 27.6423 10.8081 27.342 10.8081C26.5769 10.8081 25.9812 11.0803 25.5551 11.6249C25.1386 12.1597 24.9303 12.9133 24.9303 13.8856V19.472H21.153V6.92824H24.8722Z" fill="#00D053"/>
<path d="M32.1363 2.62544H35.8555V6.92824H37.6425V10.3559H35.8555V19.472H32.1363V10.3559H30.7126V6.92824H32.1363V2.62544Z" fill="#00D053"/>
<path d="M62.2242 1.34189V6.02392C60.1612 4.76955 58.3548 4.14236 56.8052 4.14236C55.2555 4.14236 54.0158 4.67717 53.0859 5.74679C52.1561 6.81641 51.6912 8.25554 51.6912 10.0642C51.6912 11.7756 52.1804 13.1466 53.1586 14.1774C54.1368 15.1984 55.4444 15.7089 57.0812 15.7089C58.5146 15.7089 60.229 15.1303 62.2242 13.9732V18.6114C59.9868 19.3602 58.1224 19.7345 56.6308 19.7345C54.0642 19.7345 51.885 18.7913 50.0931 16.9049C48.3013 15.0088 47.4054 12.6993 47.4054 9.97666C47.4054 7.20537 48.3159 4.86192 50.1367 2.94632C51.9673 1.021 54.1901 0.0583431 56.8052 0.0583431C58.4904 0.0583431 60.2968 0.486192 62.2242 1.34189Z" fill="#00D053"/>
<path d="M65.3187 0H69.0379V19.472H65.3187V0Z" fill="#00D053"/>
<path d="M81.1689 19.472V17.3279H81.1108C80.5297 18.1641 79.9437 18.7719 79.3529 19.1511C78.7621 19.5206 78.0308 19.7054 77.1591 19.7054C75.6966 19.7054 74.452 19.0733 73.4254 17.8092C72.3987 16.5451 71.8854 15.0088 71.8854 13.2001C71.8854 11.4109 72.4326 9.87942 73.5271 8.6056C74.6215 7.32205 75.9194 6.68028 77.4206 6.68028C78.1374 6.68028 78.7814 6.84072 79.3529 7.16161C79.9243 7.4825 80.5297 7.993 81.1689 8.69312V6.95741H84.8881V19.472H81.1689ZM78.4376 10.4142C77.7015 10.4142 77.0865 10.7108 76.5925 11.304C76.0986 11.8874 75.8516 12.6264 75.8516 13.521C75.8516 14.3573 76.084 15.0331 76.549 15.5484C77.0235 16.0541 77.6434 16.3069 78.4086 16.3069C79.1446 16.3069 79.7742 16.0152 80.2972 15.4317C80.8202 14.8386 81.0817 14.1239 81.0817 13.2876C81.0817 12.5097 80.8202 11.8388 80.2972 11.2748C79.7742 10.7011 79.1543 10.4142 78.4376 10.4142Z" fill="#00D053"/>
<path d="M87.5758 6.95741H91.542L95.1305 14.2503L98.3267 6.95741H102.133L94.3605 25H90.496L93.2854 18.5823L87.5758 6.95741Z" fill="#00D053"/>
<path d="M102.351 17.3862C102.351 16.7445 102.579 16.1951 103.034 15.738C103.489 15.281 104.036 15.0525 104.675 15.0525C105.315 15.0525 105.862 15.281 106.317 15.738C106.772 16.1951 107 16.7445 107 17.3862C107 18.0183 106.772 18.5628 106.317 19.0198C105.862 19.4769 105.315 19.7054 104.675 19.7054C104.036 19.7054 103.489 19.4769 103.034 19.0198C102.579 18.5628 102.351 18.0183 102.351 17.3862Z" fill="#00D053"/>
</svg>

<svg width="107" height="25" fill="none" xmlns="http://www.w3.org/2000/svg"><path d="M7.627.32h3.182l7.787 19.152H14.47l-1.555-3.763H5.608L4.11 19.472H0L7.627.321zm1.598 6.273l-2.222 5.645h4.518L9.225 6.593zm15.647.335v1.853h.058c.368-.623.795-1.114 1.279-1.474.494-.369.949-.554 1.366-.554.251 0 .479.02.682.059v4.084a4.935 4.935 0 00-.915-.088c-.765 0-1.36.272-1.787.817-.416.535-.625 1.288-.625 2.26v5.587h-3.777V6.928h3.72zm7.264-4.303h3.72v4.303h1.786v3.428h-1.787v9.116h-3.719v-9.116h-1.423V6.928h1.423V2.625zm30.088-1.283v4.682c-2.063-1.254-3.87-1.882-5.419-1.882-1.55 0-2.79.535-3.72 1.605-.929 1.07-1.394 2.509-1.394 4.317 0 1.712.49 3.083 1.468 4.113.978 1.021 2.285 1.532 3.922 1.532 1.434 0 3.148-.579 5.143-1.736v4.638c-2.237.75-4.102 1.123-5.593 1.123-2.567 0-4.746-.943-6.538-2.83-1.792-1.895-2.688-4.205-2.688-6.927 0-2.772.91-5.115 2.732-7.03 1.83-1.927 4.053-2.89 6.668-2.89 1.685 0 3.492.428 5.42 1.284zM65.319 0h3.719v19.472h-3.72V0zm15.85 19.472v-2.144h-.058c-.581.836-1.167 1.444-1.758 1.823-.59.37-1.322.554-2.194.554-1.462 0-2.707-.632-3.734-1.896-1.026-1.264-1.54-2.8-1.54-4.609 0-1.79.548-3.32 1.642-4.594 1.094-1.284 2.392-1.926 3.894-1.926.716 0 1.36.16 1.932.482.571.32 1.177.831 1.816 1.531V6.957h3.72v12.515h-3.72zm-2.731-9.058c-.737 0-1.352.297-1.846.89-.493.583-.74 1.322-.74 2.217 0 .836.232 1.512.697 2.027.474.506 1.094.759 1.86.759.736 0 1.365-.292 1.888-.875.523-.593.785-1.308.785-2.144a2.86 2.86 0 00-.785-2.013c-.523-.574-1.143-.86-1.86-.86zm9.138-3.457h3.966l3.588 7.293 3.197-7.293h3.806L94.361 25h-3.865l2.79-6.418-5.71-11.625zm14.775 10.429c0-.642.228-1.19.683-1.648a2.233 2.233 0 011.641-.685c.64 0 1.187.228 1.642.685.455.457.683 1.006.683 1.648 0 .632-.228 1.177-.683 1.634a2.233 2.233 0 01-1.642.685 2.232 2.232 0 01-1.641-.685 2.236 2.236 0 01-.683-1.634z" fill="#00D053"/></svg>
